public/images/icons/tenchat.svg

<svg width="20" height="20" viewBox="0 0 20 20" fill="none" xmlns="http://www.w3.org/2000/svg">
<path fill-rule="evenodd" clip-rule="evenodd" d="M4.23992 2.74181C8.01343 1.75273 11.9826 1.75273 15.7561 2.74181C16.48 2.93105 17.1367 3.3177 17.651 3.85901C18.1654 4.40054 18.5164 5.07506 18.6626 5.80608L18.6627 5.80664L18.6629 5.80719C19.1124 8.07393 19.1124 10.4054 18.6629 12.6721L18.6627 12.6727L18.6626 12.6732C18.5164 13.4042 18.1654 14.0788 17.651 14.6203C17.1366 15.1617 16.4797 15.5484 15.7556 15.7376L15.7534 15.7382L15.6716 15.759V18.1515C15.6728 18.3147 15.6265 18.4742 15.5393 18.6109C15.4507 18.7496 15.324 18.8584 15.176 18.9253C15.028 18.9921 14.8641 19.0147 14.7041 18.9907C14.5485 18.9674 14.4019 18.9009 14.2813 18.7977L11.5931 16.5594C11.5928 16.5591 11.5924 16.5588 11.5921 16.5585C11.4966 16.4802 11.3728 16.4394 11.2457 16.4467L11.2449 16.4467L11.244 16.4467C8.88767 16.5754 6.52545 16.3361 4.24438 15.7376C3.52032 15.5484 2.86337 15.1617 2.34903 14.6203C1.8346 14.0788 1.48359 13.4042 1.33736 12.6732L1.33725 12.6727L1.33714 12.6721C0.887621 10.4054 0.887621 8.07393 1.33714 5.80719L1.33723 5.80675L1.33731 5.80631C1.48317 5.07587 1.83346 4.40176 2.347 3.86028C2.86045 3.31889 3.51639 2.93185 4.23958 2.7419L4.23992 2.74181ZM4.58244 4.05344C8.1315 3.12326 11.8649 3.12329 15.4139 4.05353L15.4144 4.05366C15.8966 4.17965 16.332 4.43663 16.6714 4.79398C17.0108 5.15125 17.2408 5.59446 17.3364 6.07264C17.7511 8.16414 17.7511 10.3152 17.3364 12.4067C17.2408 12.8848 17.0108 13.328 16.6714 13.6853C16.3324 14.0422 15.8978 14.2989 15.4165 14.4251L15.1429 14.4946C15.1427 14.4947 15.1424 14.4947 15.1421 14.4948C14.6577 14.6173 14.319 15.0509 14.319 15.5509V17.0665L12.4535 15.5132L12.4522 15.5121C12.0925 15.2156 11.6339 15.0667 11.1695 15.093C8.95313 15.2139 6.7314 14.9887 4.58623 14.4258L4.58556 14.4256C4.1034 14.2996 3.66804 14.0427 3.32857 13.6853C2.98931 13.3282 2.75938 12.8852 2.66366 12.4072C2.2489 10.3153 2.24891 8.16386 2.66369 6.07199C2.75915 5.59435 2.98861 5.15157 3.32731 4.79445C3.66611 4.43722 4.10066 4.18006 4.5821 4.05353C4.58218 4.05351 4.58226 4.05349 4.58234 4.05347M6.88829 6.26144V7.36128H8.25047C8.86403 7.36128 9.38196 7.85885 9.38196 8.48887V12.5033H10.7487V8.48887C10.7487 7.86266 11.2588 7.36128 11.8801 7.36128H13.2423V6.26144H6.88829ZM13.4713 4.90562C14.0832 4.90773 14.5949 5.40063 14.5949 6.0293V7.59342C14.5949 8.22344 14.0809 8.7171 13.4674 8.7171H12.1013V12.7355C12.1013 13.3655 11.5873 13.8591 10.9737 13.8591H9.1569C8.86101 13.8591 8.57529 13.7431 8.36311 13.5335C8.15059 13.3235 8.02936 13.0367 8.02936 12.7355V8.7171H6.66945C6.52313 8.71791 6.37784 8.69032 6.24176 8.63567C6.10456 8.58057 5.97912 8.49891 5.87294 8.39492C5.76674 8.29092 5.6819 8.16663 5.62382 8.02894C5.56573 7.89125 5.53569 7.74319 5.53569 7.59342C5.53569 7.59341 5.53569 7.59342 5.53569 7.59342V6.0293C5.53569 5.40314 6.04181 4.90561 6.66323 4.90561H13.4674L13.4713 4.90562Z" fill="#FCFDFD"/>
</svg>

<svg width="20" height="20" fill="none" xmlns="http://www.w3.org/2000/svg"><path fill-rule="evenodd" clip-rule="evenodd" d="M4.24 2.742c3.773-.99 7.743-.99 11.516 0 .724.189 1.38.576 1.895 1.117a3.953 3.953 0 0 1 1.012 1.947v.001c.45 2.267.45 4.598 0 6.865v.001a3.953 3.953 0 0 1-1.012 1.947 4.014 4.014 0 0 1-1.895 1.118h-.003l-.081.021v2.392a.843.843 0 0 1-1.39.647l-2.689-2.239a.501.501 0 0 0-.347-.112h-.002a22.705 22.705 0 0 1-7-.71A4.013 4.013 0 0 1 2.35 14.62a3.953 3.953 0 0 1-1.012-1.947 17.642 17.642 0 0 1 0-6.866 3.953 3.953 0 0 1 1.01-1.947A4.013 4.013 0 0 1 4.24 2.742Zm.342 1.311a21.37 21.37 0 0 1 10.832 0 2.66 2.66 0 0 1 1.257.741c.34.357.57.8.665 1.279a16.28 16.28 0 0 1 0 6.334 2.596 2.596 0 0 1-.665 1.278 2.661 2.661 0 0 1-1.255.74l-.273.07a1.088 1.088 0 0 0-.824 1.056v1.516l-1.866-1.554a1.852 1.852 0 0 0-1.284-.42 21.358 21.358 0 0 1-6.583-.667 2.66 2.66 0 0 1-1.257-.74c-.34-.358-.57-.8-.665-1.279a16.283 16.283 0 0 1 0-6.335c.095-.478.325-.92.663-1.278a2.661 2.661 0 0 1 1.255-.74M6.888 6.26v1.1H8.25c.614 0 1.132.498 1.132 1.128v4.014h1.367V8.49c0-.626.51-1.128 1.131-1.128h1.362v-1.1H6.888Zm6.583-1.355a1.125 1.125 0 0 1 1.124 1.123v1.564c0 .63-.514 1.124-1.128 1.124h-1.366v4.018c0 .63-.514 1.124-1.127 1.124H9.157a1.13 1.13 0 0 1-1.128-1.123V8.716H6.67a1.13 1.13 0 0 1-1.045-.688 1.12 1.12 0 0 1-.088-.436V6.03c0-.626.506-1.123 1.127-1.123h6.808Z" fill="#FCFDFD"/></svg>
